assets/dude/We–Willie.svg

<svg width="241" height="110" viewBox="0 0 241 110" fill="none" xmlns="http://www.w3.org/2000/svg">
<path d="M146.343 9.35993C145.643 8.93993 130.243 4.45993 126.463 4.45993C125.623 4.45993 124.783 9.49994 123.943 9.49994C123.103 9.49994 122.263 4.45993 121.423 4.45993C117.643 4.45993 102.243 8.93993 101.543 9.35993C100.843 9.77993 100.703 10.0599 100.703 10.7599C100.703 11.4599 103.223 20.8399 103.223 39.7399C103.223 40.4399 103.783 40.9999 104.483 40.9999H119.883C120.443 40.9999 120.723 41.2799 120.723 41.5599C120.723 41.9799 120.303 42.8199 120.303 42.8199L109.523 66.8999C108.823 68.2999 108.263 68.7199 107.563 68.7199H95.1029C94.4029 68.7199 93.8429 68.2999 93.0029 66.7599L82.3629 42.8199C82.3629 42.8199 81.9429 41.9799 81.9429 41.5599C81.9429 41.2799 82.2229 40.9999 82.7829 40.9999H92.5829C93.2829 40.9999 93.8429 40.4399 93.8429 39.7399C93.8429 20.8399 96.3629 11.4599 96.3629 10.7599C96.3629 10.0599 96.2229 9.77993 95.5229 9.35993C94.8229 8.93993 80.1229 4.45993 76.3429 4.45993C75.5029 4.45993 74.6629 9.49994 73.8229 9.49994C72.9829 9.49994 72.1429 4.45993 71.3029 4.45993C67.5229 4.45993 52.8229 8.93993 52.1229 9.35993C51.4229 9.77993 51.2829 10.0599 51.2829 10.7599C51.2829 11.4599 53.8029 20.8399 53.8029 39.7399C53.8029 40.4399 54.3629 40.9999 55.0629 40.9999H66.9629C67.5229 40.9999 67.8029 41.2799 67.8029 41.5599C67.8029 41.9799 67.3829 42.8199 67.3829 42.8199L56.6029 66.8999C55.9029 68.2999 55.3429 68.7199 54.6429 68.7199H42.1829C41.4829 68.7199 40.9229 68.2999 40.0829 66.7599L29.4429 42.8199C29.4429 42.8199 29.0229 41.9799 29.0229 41.5599C29.0229 41.2799 29.3029 40.9999 29.8629 40.9999H43.1629C43.8629 40.9999 44.4229 40.4399 44.4229 39.7399C44.4229 20.8399 46.9429 11.4599 46.9429 10.7599C46.9429 10.0599 46.8029 9.77993 46.1029 9.35993C45.4029 8.93993 30.0029 4.45993 26.2229 4.45993C25.3829 4.45993 24.5429 9.49994 23.7029 9.49994C22.8629 9.49994 22.0229 4.45993 21.1829 4.45993C17.4029 4.45993 2.00289 8.93993 1.30289 9.35993C0.602891 9.77993 0.462891 10.0599 0.462891 10.7599C0.462891 11.4599 2.98289 20.8399 2.98289 39.7399C2.98289 40.4399 3.54289 40.9999 4.24289 40.9999H12.5029C13.2029 40.9999 13.9029 41.5599 14.4629 42.8199L41.4829 103.86C41.7629 104.42 43.0229 106.52 45.9629 106.52C48.6229 106.52 50.0229 104.42 50.3029 103.86L70.8829 57.7999C70.8829 57.7999 71.5829 55.9799 72.4229 55.9799C73.2629 55.9799 73.9629 57.7999 73.9629 57.7999L94.4029 103.86C94.6829 104.42 95.9429 106.52 98.8829 106.52C101.543 106.52 102.943 104.42 103.223 103.86L130.383 42.8199C130.943 41.5599 131.643 40.9999 132.343 40.9999H143.403C144.103 40.9999 144.663 40.4399 144.663 39.7399C144.663 20.8399 147.183 11.4599 147.183 10.7599C147.183 10.0599 147.043 9.77993 146.343 9.35993Z" fill="#FF1C31"/>
<path d="M237.92 62.8399C237.92 62.1399 237.36 61.5799 236.66 61.5799H229.38C228.68 61.5799 228.12 62.1399 228.12 62.8399C228.12 66.3399 225.32 68.7199 221.82 68.7199H182.48C181.78 68.7199 181.22 68.1599 181.22 67.4599V59.8999C181.22 59.1999 181.78 58.6399 182.48 58.6399H194.24C194.94 58.6399 195.5 59.1999 195.5 59.8999V61.1599C195.5 61.8599 196.06 62.4199 196.76 62.4199H215.66C216.36 62.4199 216.92 61.8599 216.92 61.1599V48.5599C216.92 47.8599 216.36 47.2999 215.66 47.2999H196.76C196.06 47.2999 195.5 47.8599 195.5 48.5599V49.8199C195.5 50.5199 194.94 51.0799 194.24 51.0799H182.48C181.78 51.0799 181.22 50.5199 181.22 49.8199V42.2599C181.22 41.5599 181.78 40.9999 182.48 40.9999H221.82C225.32 40.9999 228.12 43.3799 228.12 46.8799C228.12 47.5799 228.68 48.1399 229.38 48.1399H236.66C237.36 48.1399 237.92 47.5799 237.92 46.8799V39.7399C237.92 20.8399 240.44 11.4599 240.44 10.7599C240.44 10.0599 240.3 9.77993 239.6 9.35993C238.9 8.93993 222.8 4.45993 219.02 4.45993C218.18 4.45993 217.34 9.49994 216.5 9.49994C215.66 9.49994 214.96 4.31994 213.98 3.19993C213 2.07993 203.9 0.679932 196.34 0.679932C188.78 0.679932 179.68 2.07993 178.7 3.19993C177.72 4.31994 177.02 9.49994 176.18 9.49994C175.34 9.49994 174.5 4.45993 173.66 4.45993C169.88 4.45993 153.78 8.93993 153.08 9.35993C152.38 9.77993 152.24 10.0599 152.24 10.7599C152.24 11.4599 154.76 20.8399 154.76 39.7399C154.76 40.4399 155.32 40.9999 156.02 40.9999H169.88C170.58 40.9999 171.14 41.5599 171.14 42.2599V67.4599C171.14 68.1599 170.58 68.7199 169.88 68.7199H156.02C155.32 68.7199 154.76 69.2799 154.76 69.9799C154.76 88.8799 152.24 98.2599 152.24 98.9599C152.24 99.6599 152.38 99.9399 153.08 100.36C153.78 100.78 169.88 105.26 173.66 105.26C174.5 105.26 175.34 100.22 176.18 100.22C177.02 100.22 177.72 105.4 178.7 106.52C179.68 107.64 188.78 109.04 196.34 109.04C203.9 109.04 213 107.64 213.98 106.52C214.96 105.4 215.66 100.22 216.5 100.22C217.34 100.22 218.18 105.26 219.02 105.26C222.8 105.26 238.9 100.78 239.6 100.36C240.3 99.9399 240.44 99.6599 240.44 98.9599C240.44 98.2599 237.92 88.8799 237.92 69.9799V62.8399Z" fill="#FF1C31"/>
</svg>

<svg xmlns="http://www.w3.org/2000/svg" fill="none" viewBox="0 0 241 110"><path fill="#FF1C31" d="M146.343 9.36c-.7-.42-16.1-4.9-19.88-4.9-.84 0-1.68 5.04-2.52 5.04-.84 0-1.68-5.04-2.52-5.04-3.78 0-19.18 4.48-19.88 4.9-.7.42-.84.7-.84 1.4s2.52 10.08 2.52 28.98c0 .7.56 1.26 1.26 1.26h15.4c.56 0 .84.28.84.56 0 .42-.42 1.26-.42 1.26l-10.78 24.08c-.7 1.4-1.26 1.82-1.96 1.82h-12.46c-.7 0-1.26-.42-2.1-1.96l-10.64-23.94s-.42-.84-.42-1.26c0-.28.28-.56.84-.56h9.8c.7 0 1.26-.56 1.26-1.26 0-18.9 2.52-28.28 2.52-28.98 0-.7-.14-.98-.84-1.4-.7-.42-15.4-4.9-19.18-4.9-.84 0-1.68 5.04-2.52 5.04-.84 0-1.68-5.04-2.52-5.04-3.78 0-18.48 4.48-19.18 4.9-.7.42-.84.7-.84 1.4s2.52 10.08 2.52 28.98c0 .7.56 1.26 1.26 1.26h11.9c.56 0 .84.28.84.56 0 .42-.42 1.26-.42 1.26L56.603 66.9c-.7 1.4-1.26 1.82-1.96 1.82h-12.46c-.7 0-1.26-.42-2.1-1.96l-10.64-23.94s-.42-.84-.42-1.26c0-.28.28-.56.84-.56h13.3c.7 0 1.26-.56 1.26-1.26 0-18.9 2.52-28.28 2.52-28.98 0-.7-.14-.98-.84-1.4-.7-.42-16.1-4.9-19.88-4.9-.84 0-1.68 5.04-2.52 5.04-.84 0-1.68-5.04-2.52-5.04-3.78 0-19.18 4.48-19.88 4.9-.7.42-.84.7-.84 1.4s2.52 10.08 2.52 28.98c0 .7.56 1.26 1.26 1.26h8.26c.7 0 1.4.56 1.96 1.82l27.02 61.04c.28.56 1.54 2.66 4.48 2.66 2.66 0 4.06-2.1 4.34-2.66l20.58-46.06s.7-1.82 1.54-1.82c.84 0 1.54 1.82 1.54 1.82l20.44 46.06c.28.56 1.54 2.66 4.48 2.66 2.66 0 4.06-2.1 4.34-2.66l27.16-61.04c.56-1.26 1.26-1.82 1.96-1.82h11.06c.7 0 1.26-.56 1.26-1.26 0-18.9 2.52-28.28 2.52-28.98 0-.7-.14-.98-.84-1.4zM237.92 62.84c0-.7-.56-1.26-1.26-1.26h-7.28c-.7 0-1.26.56-1.26 1.26 0 3.5-2.8 5.88-6.3 5.88h-39.34c-.7 0-1.26-.56-1.26-1.26V59.9c0-.7.56-1.26 1.26-1.26h11.76c.7 0 1.26.56 1.26 1.26v1.26c0 .7.56 1.26 1.26 1.26h18.9c.7 0 1.26-.56 1.26-1.26v-12.6c0-.7-.56-1.26-1.26-1.26h-18.9c-.7 0-1.26.56-1.26 1.26v1.26c0 .7-.56 1.26-1.26 1.26h-11.76c-.7 0-1.26-.56-1.26-1.26v-7.56c0-.7.56-1.26 1.26-1.26h39.34c3.5 0 6.3 2.38 6.3 5.88 0 .7.56 1.26 1.26 1.26h7.28c.7 0 1.26-.56 1.26-1.26v-7.14c0-18.9 2.52-28.28 2.52-28.98 0-.7-.14-.98-.84-1.4-.7-.42-16.8-4.9-20.58-4.9-.84 0-1.68 5.04-2.52 5.04-.84 0-1.54-5.18-2.52-6.3S203.9.68 196.34.68c-7.56 0-16.66 1.4-17.64 2.52-.98 1.12-1.68 6.3-2.52 6.3-.84 0-1.68-5.04-2.52-5.04-3.78 0-19.88 4.48-20.58 4.9-.7.42-.84.7-.84 1.4s2.52 10.08 2.52 28.98c0 .7.56 1.26 1.26 1.26h13.86c.7 0 1.26.56 1.26 1.26v25.2c0 .7-.56 1.26-1.26 1.26h-13.86c-.7 0-1.26.56-1.26 1.26 0 18.9-2.52 28.28-2.52 28.98 0 .7.14.98.84 1.4.7.42 16.8 4.9 20.58 4.9.84 0 1.68-5.04 2.52-5.04.84 0 1.54 5.18 2.52 6.3s10.08 2.52 17.64 2.52c7.56 0 16.66-1.4 17.64-2.52.98-1.12 1.68-6.3 2.52-6.3.84 0 1.68 5.04 2.52 5.04 3.78 0 19.88-4.48 20.58-4.9.7-.42.84-.7.84-1.4s-2.52-10.08-2.52-28.98v-7.14z"/></svg>
